X: 39443
T: Tarantella
R: jig
M: 6/8
K: Aminor
a2 a|e2 e a2 a|e2 e e^de|f2 f fgf|e3- e2 e|
e2 d d^cd|d2 c cdc|B^AB dcB|A3:|
|:EAB|cBc dcB|c2 A A2 c|B2 B dcB|c2 A EAB|
cBc dcB|c2 A ABc|B2 B dcB|A3:|
|:a2 a|e2 e a2 a|e3 e^de|f2 f fgf|e3- e2 e|
e2 d ded|d2 c c3|B^AB dcB|A3:|
K: CMaj
|:GAB|cBc ece|g2 g gag|f2 f fgf|e3 GG/A/B|
c2 c e2 e|g2 g g^fg|bag fed|c3:|

